src/assets/icons/paperplane.svg

<svg fill="none" viewBox="0 0 24 24"><path fill="currentColor" d="m14.711 18.199.7.27.001-.002zm4.361-11.41-.7-.27-.001.003zm-1.368-1.367.268.7.002-.001zM6.248 9.809l-.269-.701v.001zm.119 2.154-.22.717h.001zm6.157 6.118.72-.212-.002-.006zm-1.876-4.216-.53.531zm-1.46 3.197-.749.043a.75.75 0 0 0 1.215.545zm2.44-1.938.718-.218zm-.416-.695.53-.53zm2.383 4.821V20c1.015 0 1.549-.839 1.816-1.531l-.7-.27-.7-.269c-.102.264-.204.42-.286.501-.065.066-.1.069-.13.069zm1.116-1.051.701.268 4.36-11.41-.7-.268-.701-.267-4.36 11.41zm4.361-11.41.699.271c.126-.325.229-.684.229-1.044h-1.5c0 .09-.029.247-.128.503zm-.595-1.539V4.5c-.343 0-.703.091-1.043.222l.27.7.27.699c.241-.093.41-.121.503-.121zm-.773.172-.268-.701L5.979 9.108l.269.701.268.7 11.456-4.387zM6.248 9.809l-.269-.7c-.634.243-1.479.779-1.479 1.79H6c0-.026.004-.063.07-.13.078-.079.222-.174.446-.26zm-.998 1.09H4.5c0 .541.22.969.59 1.273.321.263.726.406 1.057.508l.22-.717.219-.718c-.316-.096-.47-.171-.545-.233a.1.1 0 0 1-.025-.025l-.005-.007-.006-.018A.3.3 0 0 1 6 10.899zm7.274 7.182-.719.211c.1.343.241.759.501 1.089.3.382.731.619 1.289.619v-1.5a.3.3 0 0 1-.059-.005l-.014-.004-.009-.006-.027-.03c-.068-.086-.145-.255-.242-.586zm-1.312-3.652.53-.53-.564-.564-.53.53-.53.531.563.563zm-.564-.564.53-.53-.233-.233-.531.53-.53.53.234.234zm8.602-7.849H20c0-.364-.109-.73-.365-1.022l-.563.495-.564.495-.011-.016-.003-.005a.2.2 0 0 1 .006.053zm-.178-.527.563-.495c-.303-.345-.73-.494-1.158-.494V6c.044 0 .062.007.06.007l-.01-.006q-.01-.007-.019-.017zm-8.424 8.376.529.532L19.6 6.021l-.528-.532-.529-.532-8.424 8.377zm.98 1.259-.718.217.896 2.957.718-.217.718-.218-.896-2.957zm-2.44 1.938.466.588 2.44-1.939-.466-.587-.467-.587-2.44 1.938zm-2.821-5.099-.219.717 2.576.786.219-.718.219-.717-2.576-.786zm2.821 5.099.748-.042-.244-4.314-.749.042-.749.043.245 4.314zm2.024-2.633-.531.53a.9.9 0 0 1 .229.382l.718-.217.718-.218a2.4 2.4 0 0 0-.604-1.007zm-.798-.797.531-.53a4.3 4.3 0 0 0-1.783-1.071l-.219.717-.219.718c.438.133.836.373 1.16.696z"/></svg>

<svg width="24" height="24" viewBox="0 0 24 24" fill="none" xmlns="http://www.w3.org/2000/svg">
<path d="M14.711 18.199L15.411 18.469L15.412 18.467L14.711 18.199ZM19.072 6.789L18.372 6.519L18.371 6.522L19.072 6.789ZM17.704 5.422L17.972 6.122L17.974 6.121L17.704 5.422ZM6.248 9.809L5.979 9.108L5.979 9.109L6.248 9.809ZM6.367 11.963L6.147 12.68L6.148 12.68L6.367 11.963ZM12.524 18.081L13.244 17.869L13.242 17.863L12.524 18.081ZM10.648 13.865L10.118 14.396L10.118 14.396L10.648 13.865ZM9.188 17.062L8.439 17.105C8.455 17.385 8.625 17.632 8.881 17.747C9.136 17.862 9.435 17.824 9.654 17.65L9.188 17.062ZM11.628 15.124L12.346 14.906L12.346 14.906L11.628 15.124ZM11.212 14.429L11.742 13.899L11.212 14.429ZM13.595 19.25V20C14.61 20 15.144 19.161 15.411 18.469L14.711 18.199L14.011 17.93C13.909 18.194 13.807 18.35 13.725 18.431C13.66 18.497 13.625 18.5 13.595 18.5V19.25ZM14.711 18.199L15.412 18.467L19.772 7.057L19.072 6.789L18.371 6.522L14.011 17.932L14.711 18.199ZM19.072 6.789L19.771 7.06C19.897 6.735 20 6.376 20 6.016H19.25H18.5C18.5 6.106 18.471 6.263 18.372 6.519L19.072 6.789ZM18.477 5.25V4.5C18.134 4.5 17.774 4.591 17.434 4.722L17.704 5.422L17.974 6.121C18.215 6.028 18.384 6 18.477 6V5.25ZM17.704 5.422L17.436 4.721L5.979 9.108L6.248 9.809L6.516 10.509L17.972 6.122L17.704 5.422ZM6.248 9.809L5.979 9.109C5.345 9.352 4.5 9.888 4.5 10.899H5.25H6C6 10.873 6.004 10.836 6.07 10.769C6.148 10.69 6.292 10.595 6.516 10.509L6.248 9.809ZM5.25 10.899H4.5C4.5 11.44 4.72 11.868 5.09 12.172C5.411 12.435 5.816 12.578 6.147 12.68L6.367 11.963L6.586 11.245C6.27 11.149 6.116 11.074 6.041 11.012C6.027 11 6.019 10.992 6.016 10.987C6.013 10.983 6.011 10.981 6.011 10.98C6.01 10.978 6.008 10.973 6.005 10.962C6.003 10.951 6 10.931 6 10.899H5.25ZM12.524 18.081L11.805 18.292C11.905 18.635 12.046 19.051 12.306 19.381C12.606 19.763 13.037 20 13.595 20V19.25V18.5C13.564 18.5 13.545 18.497 13.536 18.495C13.526 18.493 13.522 18.491 13.522 18.491C13.521 18.49 13.518 18.489 13.513 18.485C13.508 18.48 13.499 18.471 13.486 18.455C13.418 18.369 13.341 18.2 13.244 17.869L12.524 18.081ZM11.212 14.429L11.742 13.899L11.178 13.335L10.648 13.865L10.118 14.396L10.681 14.959L11.212 14.429ZM10.648 13.865L11.178 13.335L10.945 13.102L10.414 13.632L9.884 14.162L10.118 14.396L10.648 13.865ZM19.25 6.016H20C20 5.652 19.891 5.286 19.635 4.994L19.072 5.489L18.508 5.984C18.503 5.978 18.499 5.973 18.497 5.968C18.495 5.964 18.494 5.962 18.494 5.963C18.495 5.965 18.5 5.981 18.5 6.016H19.25ZM19.072 5.489L19.635 4.994C19.332 4.649 18.905 4.5 18.477 4.5V5.25V6C18.521 6 18.539 6.007 18.537 6.007C18.537 6.007 18.533 6.005 18.527 6.001C18.521 5.996 18.514 5.991 18.508 5.984L19.072 5.489ZM10.648 13.865L11.177 14.397L19.6 6.021L19.072 5.489L18.543 4.957L10.119 13.334L10.648 13.865ZM11.628 15.124L10.91 15.341L11.806 18.298L12.524 18.081L13.242 17.863L12.346 14.906L11.628 15.124ZM9.188 17.062L9.654 17.65L12.094 15.711L11.628 15.124L11.161 14.537L8.721 16.475L9.188 17.062ZM6.367 11.963L6.148 12.68L8.724 13.466L8.943 12.748L9.162 12.031L6.586 11.245L6.367 11.963ZM9.188 17.062L9.936 17.02L9.692 12.706L8.943 12.748L8.194 12.791L8.439 17.105L9.188 17.062ZM11.212 14.429L10.681 14.959C10.788 15.066 10.866 15.197 10.91 15.341L11.628 15.124L12.346 14.906C12.23 14.526 12.023 14.18 11.742 13.899L11.212 14.429ZM10.414 13.632L10.945 13.102C10.447 12.604 9.835 12.236 9.162 12.031L8.943 12.748L8.724 13.466C9.162 13.599 9.56 13.839 9.884 14.162L10.414 13.632Z" fill="#314158"/>
</svg>
